src/assets/icons/Printericon.svg

<svg width="38" height="38" viewBox="0 0 38 38" fill="none" xmlns="http://www.w3.org/2000/svg">
<path d="M11.0833 19C11.9542 19 12.6667 18.2875 12.6667 17.4166C12.6667 16.5458 11.9542 15.8333 11.0833 15.8333C10.2125 15.8333 9.5 16.5458 9.5 17.4166C9.5 18.2875 10.2125 19 11.0833 19Z" fill="black"/>
<path fill-rule="evenodd" clip-rule="evenodd" d="M11.0833 3.16669C10.2125 3.16669 9.49999 3.87919 9.49999 4.75002V11.0834H7.91666C5.28832 11.0834 3.16666 13.205 3.16666 15.8334V23.75C3.16666 26.3784 5.28832 28.5 7.91666 28.5H9.49999V33.25C9.49999 34.1209 10.2125 34.8334 11.0833 34.8334H26.9167C27.7875 34.8334 28.5 34.1209 28.5 33.25V28.5H30.0833C32.7117 28.5 34.8333 26.3784 34.8333 23.75V15.8334C34.8333 13.205 32.7117 11.0834 30.0833 11.0834H28.5V8.70835C28.5 8.28085 28.3258 7.88502 28.0408 7.58419L24.0825 3.62585C23.7817 3.32502 23.3858 3.16669 22.9583 3.16669H11.0833ZM8.64499 24.3834V26.1567H6.87166C5.88999 26.1567 5.09832 25.365 5.09832 24.3834V15.485C5.09832 14.5034 5.88999 13.7117 6.87166 13.7117H31.8092C32.7908 13.7117 33.5825 14.5034 33.5825 15.485V24.3834C33.5825 25.365 32.7908 26.1567 31.8092 26.1567H30.0358V24.3834C30.0358 23.4017 29.2442 22.61 28.2625 22.61H10.4342C9.45249 22.61 8.66082 23.4017 8.66082 24.3834H8.64499ZM26.6158 11.0834V8.97752L22.895 5.25669H11.0833V11.0834H26.6158ZM11.4475 32.2684H26.6V25.3334H11.4475V32.2684Z" fill="black"/>
</svg>

<?xml version="1.0" encoding="UTF-8"?><svg id="Layer_1" xmlns="http://www.w3.org/2000/svg" viewBox="0 0 38 38"><defs><style>.cls-1{fill-rule:evenodd;}</style></defs><path d="M11.08,19c.87,0,1.58-.71,1.58-1.58s-.71-1.58-1.58-1.58-1.58.71-1.58,1.58.71,1.58,1.58,1.58Z"/><path class="cls-1" d="M11.08,3.17c-.87,0-1.58.71-1.58,1.58v6.33h-1.58c-2.63,0-4.75,2.12-4.75,4.75v7.92c0,2.63,2.12,4.75,4.75,4.75h1.58v4.75c0,.87.71,1.58,1.58,1.58h15.83c.87,0,1.58-.71,1.58-1.58v-4.75h1.58c2.63,0,4.75-2.12,4.75-4.75v-7.92c0-2.63-2.12-4.75-4.75-4.75h-1.58v-2.38c0-.43-.17-.82-.46-1.12l-3.96-3.96c-.3-.3-.7-.46-1.12-.46h-11.88ZM8.64,24.38v1.77h-1.77c-.98,0-1.77-.79-1.77-1.77v-8.9c0-.98.79-1.77,1.77-1.77h24.94c.98,0,1.77.79,1.77,1.77v8.9c0,.98-.79,1.77-1.77,1.77h-1.77v-1.77c0-.98-.79-1.77-1.77-1.77H10.43c-.98,0-1.77.79-1.77,1.77h-.02ZM26.62,11.08v-2.11l-3.72-3.72h-11.81v5.83h15.53ZM11.45,33.11h15.15v-8.68h-15.15v8.68Z"/></svg>
